X: 18
T: Frost Is All Over, The
Z: NfldWhistler
S: https://thesession.org/tunes/448#setting46681
R: jig
M: 6/8
L: 1/8
K: Dmaj
|:def edB|AFD ~E2D|DFA AFA|Bee edB|
def edB|AFD ~E2D|DFA AFA|1 Bdc d2A:|2 Bdc d2B||
|:AFF EFF|AFD EFE|DFA AFA|Bee edB|
AFF EFF|AFD EFE|DFA AFA|1 Bdc d2B:|2 Bdc d2A||

